;FLAVOR:Marlin
;TIME:7849
;Filament used: 5.36585m
;Layer height: 0.2
;MINX:73.5
;MINY:76
;MINZ:0.1
;MAXX:161.5
;MAXY:159
;MAXZ:7.1
;Generated with Cura_SteamEngine mb-master-20211110
M140 S50
M105
M190 S50
M104 S200
M105
M109 S200
M82 ;absolute extrusion mode
; Ender 3 Custom Start G-code
G92 E0 ; Reset Extruder
G28 ; Home all axes
G1 Z2.0 F3000 ; Move Z Axis up little to prevent scratching of Heat Bed
G1 X0.1 Y20 Z0.3 F5000.0 ; Move to start position
G1 X0.1 Y200.0 Z0.3 F1500.0 E15 ; Draw the first line
G1 X0.4 Y200.0 Z0.3 F5000.0 ; Move to side a little
G1 X0.4 Y20 Z0.3 F1500.0 E30 ; Draw the second line
G92 E0 ; Reset Extruder
G1 Z2.0 F3000 ; Move Z Axis up little to prevent scratching of Heat Bed
G1 X5 Y20 Z0.3 F5000.0 ; Move over to prevent blob squish
G92 E0
G92 E0
G1 F2700 E-5
;LAYER_COUNT:36
;LAYER:0
M107
G0 F6000 X76.698 Y79.264 Z0.1
;TYPE:SKIRT
G1 F2700 E0
G1 F1200 X77.386 Y78.627 E0.01559
G1 X78.126 Y78.051 E0.03119
G1 X78.912 Y77.539 E0.04679
G1 X79.739 Y77.097 E0.06238
G1 X80.601 Y76.727 E0.07798
G1 X81.491 Y76.431 E0.09358
G1 X82.403 Y76.213 E0.10917
G1 X83.33 Y76.072 E0.12477
G1 X84.201 Y76.013 E0.13928
G1 X84.522 Y76.004 E0.14462
G1 X84.83 Y76 E0.14975
G1 X149.793 Y76 E1.23009
G1 X150.649 Y76.011 E1.24432
G1 X151.585 Y76.065 E1.25991
G1 X152.513 Y76.197 E1.2755
G1 X153.427 Y76.409 E1.29111
G1 X154.319 Y76.698 E1.3067
G1 X155.184 Y77.061 E1.3223
G1 X156.014 Y77.497 E1.33789
G1 X156.805 Y78.002 E1.3535
G1 X157.549 Y78.573 E1.36909
G1 X158.242 Y79.205 E1.38469
G1 X158.879 Y79.893 E1.40028
G1 X159.454 Y80.634 E1.41588
G1 X159.965 Y81.42 E1.43147
G1 X160.407 Y82.248 E1.44708
G1 X160.776 Y83.11 E1.46267
G1 X161.071 Y84 E1.47827
G1 X161.289 Y84.912 E1.49386
G1 X161.429 Y85.84 E1.50947
G1 X161.487 Y86.701 E1.52382
G1 X161.496 Y87.021 E1.52914
G1 X161.5 Y87.33 E1.53428
G1 X161.5 Y147.264 E2.53099
G1 X161.49 Y148.127 E2.54534
G1 X161.439 Y149.064 E2.56095
G1 X161.307 Y149.992 E2.57654
G1 X161.098 Y150.906 E2.59213
G1 X160.811 Y151.799 E2.60773
G1 X160.449 Y152.665 E2.62334
G1 X160.015 Y153.496 E2.63893
G1 X159.511 Y154.287 E2.65452
G1 X158.942 Y155.032 E2.67011
G1 X158.311 Y155.727 E2.68572
G1 X157.624 Y156.365 E2.70132
G1 X156.885 Y156.942 E2.71691
G1 X156.099 Y157.454 E2.73251
G1 X155.273 Y157.897 E2.7481
G1 X154.411 Y158.269 E2.76371
G1 X153.522 Y158.565 E2.77929
G1 X152.61 Y158.785 E2.79489
G1 X151.683 Y158.926 E2.81049
G1 X150.799 Y158.987 E2.82522
G1 X150.478 Y158.996 E2.83056
G1 X150.17 Y159 E2.83568
G1 X85.207 Y159 E3.91602
G1 X84.367 Y158.99 E3.92999
G1 X83.431 Y158.938 E3.94558
G1 X82.502 Y158.806 E3.96119
G1 X81.588 Y158.596 E3.97678
G1 X80.695 Y158.309 E3.99238
G1 X79.83 Y157.946 E4.00798
G1 X78.999 Y157.512 E4.02357
G1 X78.208 Y157.008 E4.03917
G1 X77.463 Y156.438 E4.05477
G1 X76.769 Y155.807 E4.07037
G1 X76.132 Y155.12 E4.08595
G1 X75.555 Y154.38 E4.10155
G1 X75.043 Y153.594 E4.11715
G1 X74.6 Y152.767 E4.13276
G1 X74.229 Y151.906 E4.14835
G1 X73.933 Y151.016 E4.16395
G1 X73.714 Y150.104 E4.17954
G1 X73.573 Y149.177 E4.19514
G1 X73.513 Y148.288 E4.20995
G1 X73.504 Y147.955 E4.21549
G1 X73.5 Y147.658 E4.22043
G1 X73.5 Y87.674 E5.21797
G1 X73.51 Y86.86 E5.23151
G1 X73.563 Y85.924 E5.2471
G1 X73.695 Y84.995 E5.26271
G1 X73.906 Y84.081 E5.2783
G1 X74.194 Y83.189 E5.29389
G1 X74.557 Y82.324 E5.30949
G1 X74.992 Y81.493 E5.32509
G1 X75.496 Y80.703 E5.34068
G1 X76.066 Y79.958 E5.35628
G1 X76.698 Y79.264 E5.37188
G0 F6000 X77.089 Y79.439
G1 F1200 X77.774 Y78.823 E5.38721
G1 X78.51 Y78.27 E5.40251
G1 X79.291 Y77.782 E5.41783
G1 X80.111 Y77.364 E5.43314
G1 X80.965 Y77.019 E5.44845
G1 X81.845 Y76.749 E5.46376
G1 X82.745 Y76.557 E5.47906
G1 X83.659 Y76.443 E5.49438
G1 X84.212 Y76.413 E5.50359
G1 X84.533 Y76.404 E5.50893
G1 X84.83 Y76.4 E5.51387
G1 X149.793 Y76.4 E6.59421
G1 X150.643 Y76.411 E6.60835
G1 X151.562 Y76.464 E6.62366
G1 X152.473 Y76.597 E6.63897
G1 X153.369 Y76.808 E6.65428
G1 X154.243 Y77.096 E6.66958
G1 X155.09 Y77.459 E6.6849
G1 X155.901 Y77.894 E6.70021
G1 X156.671 Y78.398 E6.71551
G1 X157.395 Y78.967 E6.73083
G1 X158.067 Y79.597 E6.74614
G1 X158.682 Y80.282 E6.76145
G1 X159.235 Y81.018 E6.77676
G1 X159.722 Y81.799 E6.79207
G1 X160.139 Y82.62 E6.80738
G1 X160.484 Y83.474 E6.8227
G1 X160.753 Y84.354 E6.838
G1 X160.945 Y85.255 E6.85332
G1 X161.058 Y86.168 E6.86862
G1 X161.087 Y86.712 E6.87768
G1 X161.096 Y87.032 E6.88301
G1 X161.1 Y87.33 E6.88796
G1 X161.1 Y147.264 E7.88467
G1 X161.09 Y148.122 E7.89894
G1 X161.039 Y149.041 E7.91424
G1 X160.908 Y149.953 E7.92957
G1 X160.698 Y150.849 E7.94487
G1 X160.412 Y151.724 E7.96018
G1 X160.051 Y152.571 E7.97549
G1 X159.617 Y153.383 E7.9908
G1 X159.115 Y154.155 E8.00612
G1 X158.547 Y154.88 E8.02143
G1 X157.919 Y155.553 E8.03674
G1 X157.235 Y156.169 E8.05205
G1 X156.5 Y156.723 E8.06736
G1 X155.72 Y157.212 E8.08267
G1 X154.9 Y157.631 E8.09798
G1 X154.047 Y157.977 E8.11329
G1 X153.167 Y158.248 E8.1286
G1 X152.267 Y158.441 E8.14391
G1 X151.353 Y158.556 E8.15923
G1 X150.788 Y158.587 E8.16864
G1 X150.467 Y158.596 E8.17398
G1 X150.17 Y158.6 E8.17892
G1 X85.207 Y158.6 E9.25926
G1 X84.372 Y158.59 E9.27314
G1 X83.453 Y158.538 E9.28845
G1 X82.542 Y158.407 E9.30376
G1 X81.646 Y158.197 E9.31906
G1 X80.771 Y157.91 E9.33437
G1 X79.924 Y157.548 E9.34969
G1 X79.112 Y157.114 E9.365
G1 X78.341 Y156.612 E9.3803
G1 X77.616 Y156.044 E9.39562
G1 X76.943 Y155.415 E9.41094
G1 X76.328 Y154.731 E9.42624
G1 X75.774 Y153.996 E9.44154
G1 X75.286 Y153.215 E9.45686
G1 X74.867 Y152.395 E9.47217
G1 X74.521 Y151.542 E9.48748
G1 X74.251 Y150.662 E9.50279
G1 X74.058 Y149.761 E9.51811
G1 X73.944 Y148.848 E9.53341
G1 X73.913 Y148.277 E9.54292
G1 X73.904 Y147.944 E9.54846
G1 X73.9 Y147.658 E9.55322
G1 X73.9 Y87.674 E10.55076
G1 X73.91 Y86.866 E10.5642
G1 X73.962 Y85.946 E10.57952
G1 X74.094 Y85.035 E10.59483
G1 X74.305 Y84.139 E10.61014
G1 X74.592 Y83.264 E10.62545
G1 X74.955 Y82.418 E10.64076
G1 X75.389 Y81.606 E10.65607
G1 X75.892 Y80.835 E10.67138
G1 X76.461 Y80.111 E10.68669
G1 X77.089 Y79.439 E10.70199
G0 F6000 X77.481 Y79.617
G1 F1200 X78.162 Y79.024 E10.71701
G1 X78.894 Y78.494 E10.73203
G1 X79.669 Y78.031 E10.74705
G1 X80.482 Y77.638 E10.76206
G1 X81.327 Y77.318 E10.77709
G1 X82.196 Y77.075 E10.7921
G1 X83.084 Y76.909 E10.80712
G1 X84.223 Y76.813 E10.82613
G1 X84.544 Y76.804 E10.83147
G1 X84.83 Y76.8 E10.83623
G1 X149.793 Y76.8 E11.91657
G1 X150.637 Y76.811 E11.9306
G1 X151.539 Y76.864 E11.94563
G1 X152.432 Y76.996 E11.96064
G1 X153.31 Y77.207 E11.97566
G1 X154.166 Y77.495 E11.99068
G1 X154.993 Y77.857 E12.00569
G1 X155.785 Y78.292 E12.02072
G1 X156.536 Y78.794 E12.03574
G1 X157.239 Y79.361 E12.05076
G1 X157.889 Y79.988 E12.06578
G1 X158.481 Y80.67 E12.0808
G1 X159.011 Y81.401 E12.09581
G1 X159.473 Y82.177 E12.11083
G1 X159.866 Y82.99 E12.12585
G1 X160.184 Y83.835 E12.14086
G1 X160.427 Y84.705 E12.15588
G1 X160.592 Y85.593 E12.1709
G1 X160.687 Y86.723 E12.18976
G1 X160.696 Y87.043 E12.19509
G1 X160.7 Y87.33 E12.19986
G1 X160.7 Y147.264 E13.19657
G1 X160.69 Y148.117 E13.21075
G1 X160.639 Y149.019 E13.22578
G1 X160.508 Y149.913 E13.2408
G1 X160.299 Y150.791 E13.25581
G1 X160.013 Y151.648 E13.27084
G1 X159.652 Y152.476 E13.28586
G1 X159.22 Y153.268 E13.30086
G1 X158.719 Y154.02 E13.31589
G1 X158.153 Y154.724 E13.33091
G1 X157.528 Y155.375 E13.34592
G1 X156.847 Y155.969 E13.36095
G1 X156.116 Y156.5 E13.37597
G1 X155.342 Y156.964 E13.39098
G1 X154.529 Y157.358 E13.406
G1 X153.685 Y157.678 E13.42101
G1 X152.815 Y157.923 E13.43605
G1 X151.928 Y158.089 E13.45105
G1 X150.777 Y158.187 E13.47026
G1 X150.456 Y158.196 E13.4756
G1 X150.17 Y158.2 E13.48036
G1 X85.207 Y158.2 E14.5607
G1 X84.377 Y158.19 E14.5745
G1 X83.476 Y158.139 E14.58951
G1 X82.582 Y158.007 E14.60454
G1 X81.704 Y157.798 E14.61955
G1 X80.847 Y157.511 E14.63458
G1 X80.02 Y157.15 E14.64958
G1 X79.227 Y156.717 E14.66461
G1 X78.476 Y156.216 E14.67962
G1 X77.772 Y155.65 E14.69464
G1 X77.121 Y155.024 E14.70966
G1 X76.528 Y154.343 E14.72468
G1 X75.998 Y153.612 E14.7397
G1 X75.534 Y152.837 E14.75472
G1 X75.14 Y152.024 E14.76974
G1 X74.82 Y151.18 E14.78475
G1 X74.576 Y150.31 E14.79978
G1 X74.41 Y149.422 E14.8148
G1 X74.313 Y148.267 E14.83408
G1 X74.304 Y147.934 E14.83962
G1 X74.3 Y147.658 E14.84421
G1 X74.3 Y87.674 E15.84175
G1 X74.31 Y86.871 E15.8551
G1 X74.362 Y85.969 E15.87013
G1 X74.494 Y85.076 E15.88514
G1 X74.704 Y84.198 E15.90015
G1 X74.991 Y83.341 E15.91518
G1 X75.353 Y82.514 E15.93019
G1 X75.786 Y81.722 E15.94521
G1 X76.288 Y80.971 E15.96023
G1 X76.855 Y80.267 E15.97526
G1 X77.481 Y79.617 E15.99027
G1 F2700 E10.99027
;MESH:Option_4-podstawa.amf
G0 F6000 X130.689 Y116.618
G0 X128.994 Y117.319
G0 X130.319 Y118.599
G0 X134.44 Y119.715
;TYPE:WALL-INNER
G1 F2700 E15.99027
G1 F1200 X137.222 Y116.1 E16.06613
G1 X135.479 Y111.883 E16.14201
G1 X130.961 Y111.285 E16.2178
G1 X128.178 Y114.9 E16.29367
G1 X129.922 Y119.117 E16.36956
G1 X134.44 Y119.715 E16.44535
G0 F6000 X134.264 Y119.288
G1 F1200 X136.764 Y116.039 E16.51352
G1 X135.198 Y112.249 E16.58172
G1 X131.137 Y111.712 E16.64984
G1 X128.636 Y114.961 E16.71803
G1 X130.203 Y118.751 E16.78623
G1 X134.264 Y119.288 E16.85435
G0 F6000 X134.088 Y118.861
;TYPE:WALL-OUTER
G1 F1200 X136.306 Y115.978 E16.91485
G1 X134.917 Y112.615 E16.97535
G1 X131.313 Y112.139 E17.03581
G1 X129.094 Y115.022 E17.09631
G1 X130.484 Y118.385 E17.15683
G1 X134.088 Y118.861 E17.21728
G1 F2700 E12.21728
G0 F6000 X134.047 Y119.157
G0 X130.319 Y118.599
G0 X128.994 Y117.319
G0 X130.689 Y116.618
G0 X103.993 Y101.808
G0 X105.191 Y103.196
G0 X103.152 Y104.73
;TYPE:WALL-INNER
G1 F2700 E17.21728
G1 F1200 X106.606 Y101.751 E17.29314
G1 X105.754 Y97.269 E17.36901
G1 X101.444 Y95.77 E17.44489
G1 X97.994 Y98.749 E17.5207
G1 X98.846 Y103.231 E17.59657
G1 X103.152 Y104.73 E17.67239
G0 F6000 X103.066 Y104.276
G1 F1200 X106.17 Y101.599 E17.74056
G1 X105.404 Y97.571 E17.80874
G1 X101.531 Y96.224 E17.87693
G1 X98.43 Y98.901 E17.94506
G1 X99.196 Y102.929 E18.01325
G1 X103.066 Y104.276 E18.08139
G0 F6000 X102.98 Y103.822
;TYPE:WALL-OUTER
G1 F1200 X105.734 Y101.447 E18.14187
G1 X105.054 Y97.873 E18.20237
G1 X101.618 Y96.678 E18.26287
G1 X98.866 Y99.053 E18.32332
G1 X99.546 Y102.627 E18.38383
G1 X102.98 Y103.822 E18.44429
G1 F2700 E13.44429
G0 F6000 X103.175 Y104.049
G0 X101.192 Y104.229
G0 X101.795 Y102.494
G0 X101.445 Y128.613
G0 X100.964 Y126.842
G0 X99.528 Y127.995
G0 X98.529 Y131.772
G0 X101.134 Y135.16
;TYPE:WALL-INNER
G1 F2700 E18.44429
G1 F1200 X105.535 Y133.966 E18.52013
G1 X106.702 Y129.556 E18.59599
G1 X103.466 Y126.34 E18.67186
G1 X99.064 Y127.534 E18.74771
G1 X97.898 Y131.944 E18.82357
G1 X101.134 Y135.16 E18.89944
G0 F6000 X101.252 Y134.713
G1 F1200 X105.207 Y133.64 E18.96759
G1 X106.256 Y129.677 E19.03577
G1 X103.348 Y126.787 E19.10395
G1 X99.392 Y127.86 E19.17211
G1 X98.344 Y131.823 E19.24028
G1 X101.252 Y134.713 E19.30846
G0 F6000 X101.37 Y134.266
;TYPE:WALL-OUTER
G1 F1200 X104.879 Y133.314 E19.36893
G1 X105.81 Y129.798 E19.42941
G1 X103.23 Y127.234 E19.4899
G1 X99.72 Y128.186 E19.55038
G1 X98.79 Y131.702 E19.61087
G1 X101.37 Y134.266 E19.67136
G1 F2700 E14.67136
G0 F6000 X101.158 Y134.477
G0 X103.635 Y134.658
G0 X103.154 Y132.887
G0 X105.693 Y148.665
G0 X105.693 Y146.79
G0 X149.5 Y147
;TYPE:WALL-INNER
G1 F2700 E19.67136
G1 F1200 X85.5 Y147 E20.73568
G1 X85.5 Y88 E21.71685
G1 X149.5 Y88 E22.78118
G1 X149.5 Y147 E23.76235
G0 F6000 X149.9 Y147.4
G1 F1200 X85.1 Y147.4 E24.83998
G1 X85.1 Y87.6 E25.83446
G1 X149.9 Y87.6 E26.91209
G1 X149.9 Y147.4 E27.90657
G0 F6000 X150.3 Y147.8
;TYPE:WALL-OUTER
G1 F1200 X84.7 Y147.8 E28.9975
G1 X84.7 Y87.2 E30.00528
G1 X150.3 Y87.2 E31.09621
G1 X150.3 Y147.8 E32.10399
G0 F6000 X150.03 Y147.53
G0 X149.39 Y146.61
G0 X149.11 Y146.61
;TYPE:SKIN
G1 F1200 X85.89 Y146.61 E33.15535
G1 X85.89 Y88.39 E34.12355
G1 X149.11 Y88.39 E35.1749
G1 X149.11 Y146.61 E36.14311
G1 F2700 E31.14311
G0 F6000 X149.39 Y146.61
G0 X149.29 Y119.839
G0 X151.165 Y119.839
G0 X134.674 Y116.683
G0 X136.128 Y117.801
G0 X134.485 Y119.839
G0 X134.612 Y120.131
G1 F2700 E36.14311
G1 F1200 X129.647 Y119.474 E36.22639
G1 X127.731 Y114.841 E36.30977
G1 X130.789 Y110.869 E36.39313
G1 X135.754 Y111.526 E36.47642
G1 X137.669 Y116.159 E36.55979
G1 X134.612 Y120.131 E36.64314
G1 F2700 E31.64314
G0 F6000 X134.485 Y119.839
G0 X132.42 Y119.62
G0 X132.661 Y117.8
G0 X104.577 Y131.08
G0 X106.352 Y131.549
G0 X105.634 Y134.053
G0 X105.855 Y134.284
G1 F2700 E36.64314
G1 F1200 X101.019 Y135.595 E36.72647
G1 X97.463 Y132.061 E36.80984
G1 X98.744 Y127.216 E36.89318
G1 X103.581 Y125.905 E36.97652
G1 X107.137 Y129.439 E37.0599
G1 X105.855 Y134.284 E37.14324
G1 F2700 E32.14324
G0 F6000 X105.634 Y134.053
G0 X106.352 Y131.549
G0 X104.577 Y131.08
G0 X103.993 Y101.808
G0 X105.191 Y103.196
G0 X106.732 Y101.788
G0 X107.031 Y101.899
G1 F2700 E37.14324
G1 F1200 X103.236 Y105.172 E37.22658
G1 X98.505 Y103.525 E37.30989
G1 X97.569 Y98.601 E37.39325
G1 X101.36 Y95.328 E37.47654
G1 X106.095 Y96.975 E37.55991
G1 X107.031 Y101.899 E37.64326
G1 F2700 E32.64326
G0 F6000 X106.732 Y101.788
G0 X106.298 Y99.217
G0 X104.496 Y99.561
G0 X151.165 Y97.239
G0 X149.29 Y97.239
G0 X149.39 Y88.986
G0 X148.949 Y88.986
G1 F2700 E37.64326
G1 F1200 X148.512 Y88.549 E37.65354
G0 F6000 X147.946 Y88.549
G1 F1200 X148.949 Y89.552 E37.67713
G0 F6000 X148.949 Y90.117
G1 F1200 X147.38 Y88.549 E37.71401
G0 F6000 X146.815 Y88.549
G1 F1200 X148.949 Y90.683 E37.7642
G0 F6000 X148.949 Y91.249
G1 F1200 X146.249 Y88.549 E37.8277
G0 F6000 X145.683 Y88.549
G1 F1200 X148.949 Y91.814 E37.9045
G0 F6000 X148.949 Y92.38
G1 F1200 X145.118 Y88.549 E37.9946
G0 F6000 X144.552 Y88.549
G1 F1200 X148.949 Y92.946 E38.09801
G0 F6000 X148.949 Y93.512
G1 F1200 X143.986 Y88.549 E38.21473
G0 F6000 X143.421 Y88.549
G1 F1200 X148.949 Y94.077 E38.34474
G0 F6000 X148.949 Y94.643
G1 F1200 X142.855 Y88.549 E38.48807
G0 F6000 X142.289 Y88.549
G1 F1200 X148.949 Y95.209 E38.6447
G0 F6000 X148.949 Y95.774
G1 F1200 X141.723 Y88.549 E38.81463
G0 F6000 X141.158 Y88.549
G1 F1200 X148.949 Y96.34 E38.99786
G0 F6000 X148.949 Y96.906
G1 F1200 X140.592 Y88.549 E39.19441
G0 F6000 X140.026 Y88.549
G1 F1200 X148.949 Y97.471 E39.40425
G0 F6000 X148.949 Y98.037
G1 F1200 X139.461 Y88.549 E39.62739
G0 F6000 X138.895 Y88.549
G1 F1200 X148.949 Y98.603 E39.86385
G0 F6000 X148.949 Y99.168
G1 F1200 X138.329 Y88.549 E40.1136
G0 F6000 X137.764 Y88.549
G1 F1200 X148.949 Y99.734 E40.37666
G0 F6000 X148.949 Y100.3
G1 F1200 X137.198 Y88.549 E40.65302
G0 F6000 X136.632 Y88.549
G1 F1200 X148.949 Y100.865 E40.94269
G0 F6000 X148.949 Y101.431
G1 F1200 X136.067 Y88.549 E41.24565
G0 F6000 X135.501 Y88.549
G1 F1200 X148.949 Y101.997 E41.56193
G0 F6000 X148.949 Y102.563
G1 F1200 X134.935 Y88.549 E41.89152
G0 F6000 X134.37 Y88.549
G1 F1200 X148.949 Y103.128 E42.23439
G0 F6000 X148.949 Y103.694
G1 F1200 X133.804 Y88.549 E42.59058
G0 F6000 X133.238 Y88.549
G1 F1200 X148.949 Y104.26 E42.96008
G0 F6000 X148.949 Y104.825
G1 F1200 X132.673 Y88.549 E43.34287
G0 F6000 X132.107 Y88.549
G1 F1200 X148.949 Y105.391 E43.73896
G0 F6000 X148.949 Y105.957
G1 F1200 X131.541 Y88.549 E44.14837
G0 F6000 X130.975 Y88.549
G1 F1200 X148.949 Y106.522 E44.57108
G0 F6000 X148.949 Y107.088
G1 F1200 X130.41 Y88.549 E45.00709
G0 F6000 X129.844 Y88.549
G1 F1200 X148.949 Y107.654 E45.45641
G0 F6000 X148.949 Y108.219
G1 F1200 X129.278 Y88.549 E45.91903
G0 F6000 X128.713 Y88.549
G1 F1200 X148.949 Y108.785 E46.39495
G0 F6000 X148.949 Y109.351
G1 F1200 X128.147 Y88.549 E46.88418
G0 F6000 X127.581 Y88.549
G1 F1200 X148.949 Y109.916 E47.38671
G0 F6000 X148.949 Y110.482
G1 F1200 X127.016 Y88.549 E47.90254
G0 F6000 X126.45 Y88.549
G1 F1200 X148.949 Y111.048 E48.43169
G0 F6000 X148.949 Y111.613
G1 F1200 X125.884 Y88.549 E48.97413
G0 F6000 X125.319 Y88.549
G1 F1200 X148.949 Y112.179 E49.52987
G0 F6000 X148.949 Y112.745
G1 F1200 X124.753 Y88.549 E50.09892
G0 F6000 X124.187 Y88.549
G1 F1200 X148.949 Y113.311 E50.68129
G0 F6000 X148.949 Y113.876
G1 F1200 X123.622 Y88.549 E51.27694
G0 F6000 X123.056 Y88.549
G1 F1200 X148.949 Y114.442 E51.8859
G0 F6000 X148.949 Y115.008
G1 F1200 X122.49 Y88.549 E52.50818
G0 F6000 X121.925 Y88.549
G1 F1200 X148.949 Y115.573 E53.14374
G0 F6000 X148.949 Y116.139
