;FLAVOR:Marlin
;TIME:11893
;Filament used: 8.21916m
;Layer height: 0.2
;MINX:82.7
;MINY:85.2
;MINZ:0.1
;MAXX:152.3
;MAXY:149.8
;MAXZ:22.1
;Generated with Cura_SteamEngine mb-master-20211110
M140 S50
M105
M190 S50
M104 S200
M105
M109 S200
M82 ;absolute extrusion mode
; Ender 3 Custom Start G-code
G92 E0 ; Reset Extruder
G28 ; Home all axes
G1 Z2.0 F3000 ; Move Z Axis up little to prevent scratching of Heat Bed
G1 X0.1 Y20 Z0.3 F5000.0 ; Move to start position
G1 X0.1 Y200.0 Z0.3 F1500.0 E15 ; Draw the first line
G1 X0.4 Y200.0 Z0.3 F5000.0 ; Move to side a little
G1 X0.4 Y20 Z0.3 F1500.0 E30 ; Draw the second line
G92 E0 ; Reset Extruder
G1 Z2.0 F3000 ; Move Z Axis up little to prevent scratching of Heat Bed
G1 X5 Y20 Z0.3 F5000.0 ; Move over to prevent blob squish
G92 E0
G92 E0
G1 F2700 E-5
;LAYER_COUNT:111
;LAYER:0
M107
;MESH:Option_4-pokrywa.amf
G0 F6000 X102.841 Y139.12 Z0.1
;TYPE:WALL-INNER
G1 F2700 E0
G1 F1200 X103.277 Y139.044 E0.00736
G1 X103.7 Y138.924 E0.01467
G1 X104.108 Y138.763 E0.02197
G1 X104.498 Y138.564 E0.02925
G1 X104.868 Y138.325 E0.03657
G1 X105.21 Y138.052 E0.04385
G1 X105.526 Y137.744 E0.05119
G1 X105.805 Y137.41 E0.05843
G1 X106.052 Y137.05 E0.06569
G1 X106.265 Y136.662 E0.07305
G1 X106.433 Y136.258 E0.08032
G1 X106.564 Y135.838 E0.08764
G1 X106.651 Y135.409 E0.09492
G1 X106.695 Y134.974 E0.10219
G1 X106.697 Y134.536 E0.10947
G1 X106.653 Y134.095 E0.11684
G1 X106.566 Y133.667 E0.12411
G1 X106.439 Y133.25 E0.13136
G1 X106.269 Y132.844 E0.13868
G1 X106.056 Y132.456 E0.14604
G1 X105.809 Y132.095 E0.15331
G1 X105.53 Y131.759 E0.16057
G1 X105.214 Y131.45 E0.16792
G1 X104.871 Y131.179 E0.17519
G1 X104.502 Y130.94 E0.18251
G1 X104.111 Y130.74 E0.18981
G1 X103.705 Y130.582 E0.19705
G1 X103.284 Y130.461 E0.20434
G1 X102.824 Y130.379 E0.21211
G1 X102.004 Y130.354 E0.22575
G1 X101.536 Y130.416 E0.2336
G1 X101.114 Y130.51 E0.24079
G1 X100.696 Y130.649 E0.24812
G1 X100.292 Y130.832 E0.25549
G1 X99.911 Y131.052 E0.26281
G1 X99.557 Y131.307 E0.27007
G1 X99.228 Y131.596 E0.27735
G1 X98.929 Y131.92 E0.28468
G1 X98.665 Y132.267 E0.29193
G1 X98.435 Y132.644 E0.29928
G1 X98.247 Y133.039 E0.30655
G1 X98.097 Y133.447 E0.31378
G1 X97.986 Y133.876 E0.32115
G1 X97.92 Y134.311 E0.32847
G1 X97.901 Y134.744 E0.33567
G1 X97.918 Y135.181 E0.34295
G1 X97.983 Y135.618 E0.35029
G1 X98.092 Y136.045 E0.35762
G1 X98.242 Y136.455 E0.36488
G1 X98.431 Y136.853 E0.37221
G1 X98.664 Y137.229 E0.37957
G1 X98.926 Y137.576 E0.3868
G1 X99.224 Y137.9 E0.39412
G1 X99.553 Y138.188 E0.40139
G1 X99.907 Y138.444 E0.40865
G1 X100.289 Y138.664 E0.41599
G1 X100.688 Y138.846 E0.42328
G1 X101.105 Y138.986 E0.43059
G1 X101.532 Y139.082 E0.43787
G1 X101.966 Y139.138 E0.44515
G1 X102.402 Y139.149 E0.4524
G1 X102.841 Y139.12 E0.45972
G0 F6000 X102.793 Y138.722
G1 F1200 X103.188 Y138.653 E0.46639
G1 X103.572 Y138.545 E0.47302
G1 X103.943 Y138.398 E0.47966
G1 X104.298 Y138.217 E0.48628
G1 X104.634 Y138 E0.49294
G1 X104.945 Y137.752 E0.49955
G1 X105.232 Y137.472 E0.50622
G1 X105.486 Y137.168 E0.51281
G1 X105.711 Y136.84 E0.51942
G1 X105.904 Y136.488 E0.5261
G1 X106.057 Y136.121 E0.53271
G1 X106.176 Y135.739 E0.53936
G1 X106.255 Y135.349 E0.54598
G1 X106.295 Y134.953 E0.5526
G1 X106.297 Y134.555 E0.55922
G1 X106.257 Y134.155 E0.5659
G1 X106.178 Y133.765 E0.57252
G1 X106.062 Y133.386 E0.57911
G1 X105.908 Y133.018 E0.58575
G1 X105.715 Y132.665 E0.59244
G1 X105.49 Y132.336 E0.59907
G1 X105.236 Y132.031 E0.60567
G1 X104.949 Y131.751 E0.61233
G1 X104.638 Y131.504 E0.61894
G1 X104.302 Y131.287 E0.62559
G1 X103.947 Y131.105 E0.63223
G1 X103.577 Y130.961 E0.63883
G1 X103.194 Y130.851 E0.64545
G1 X102.783 Y130.778 E0.6524
G1 X102.024 Y130.755 E0.66502
G1 X101.606 Y130.81 E0.67204
G1 X101.221 Y130.896 E0.6786
G1 X100.842 Y131.022 E0.68524
G1 X100.475 Y131.188 E0.69194
G1 X100.129 Y131.388 E0.69858
G1 X99.807 Y131.62 E0.70518
G1 X99.508 Y131.883 E0.71181
G1 X99.236 Y132.177 E0.71847
G1 X98.996 Y132.493 E0.72506
G1 X98.787 Y132.835 E0.73173
G1 X98.616 Y133.194 E0.73834
G1 X98.479 Y133.567 E0.74495
G1 X98.378 Y133.956 E0.75163
G1 X98.319 Y134.35 E0.75826
G1 X98.301 Y134.745 E0.76484
G1 X98.317 Y135.143 E0.77146
G1 X98.376 Y135.539 E0.77812
G1 X98.475 Y135.927 E0.78478
G1 X98.611 Y136.3 E0.79138
G1 X98.783 Y136.661 E0.79803
G1 X98.994 Y137.003 E0.80471
G1 X99.233 Y137.319 E0.8113
G1 X99.504 Y137.613 E0.81795
G1 X99.803 Y137.875 E0.82456
G1 X100.125 Y138.108 E0.83117
G1 X100.472 Y138.308 E0.83783
G1 X100.835 Y138.473 E0.84446
G1 X101.213 Y138.6 E0.8511
G1 X101.602 Y138.688 E0.85773
G1 X101.997 Y138.739 E0.86435
G1 X102.394 Y138.749 E0.87096
G1 X102.793 Y138.722 E0.87761
G0 F6000 X102.745 Y138.324
G1 F1200 X103.099 Y138.262 E0.88358
G1 X103.444 Y138.165 E0.88954
G1 X103.778 Y138.033 E0.89551
G1 X104.098 Y137.87 E0.90149
G1 X104.4 Y137.675 E0.90747
G1 X104.68 Y137.452 E0.91342
G1 X104.938 Y137.2 E0.91942
G1 X105.167 Y136.926 E0.92535
G1 X105.37 Y136.63 E0.93132
G1 X105.543 Y136.314 E0.93731
G1 X105.681 Y135.984 E0.94326
G1 X105.788 Y135.64 E0.94925
G1 X105.859 Y135.289 E0.95521
G1 X105.895 Y134.932 E0.96118
G1 X105.897 Y134.574 E0.96713
G1 X105.861 Y134.215 E0.97313
G1 X105.79 Y133.864 E0.97909
G1 X105.685 Y133.522 E0.98503
G1 X105.547 Y133.191 E0.991
G1 X105.374 Y132.874 E0.997
G1 X105.171 Y132.578 E1.00297
G1 X104.942 Y132.303 E1.00892
G1 X104.684 Y132.052 E1.01491
G1 X104.404 Y131.829 E1.02086
G1 X104.102 Y131.634 E1.02684
G1 X103.783 Y131.47 E1.03281
G1 X103.449 Y131.34 E1.03877
G1 X103.104 Y131.241 E1.04474
G1 X102.742 Y131.177 E1.05085
G1 X102.044 Y131.156 E1.06246
G1 X101.676 Y131.204 E1.06863
G1 X101.328 Y131.282 E1.07456
G1 X100.988 Y131.395 E1.08052
G1 X100.658 Y131.544 E1.08654
G1 X100.347 Y131.724 E1.09252
G1 X100.057 Y131.933 E1.09846
G1 X99.788 Y132.17 E1.10443
G1 X99.543 Y132.434 E1.11042
G1 X99.327 Y132.719 E1.11636
G1 X99.139 Y133.026 E1.12235
G1 X98.985 Y133.349 E1.1283
G1 X98.861 Y133.686 E1.13427
G1 X98.771 Y134.036 E1.14028
G1 X98.718 Y134.389 E1.14622
G1 X98.701 Y134.746 E1.15216
G1 X98.716 Y135.105 E1.15814
G1 X98.769 Y135.46 E1.16411
G1 X98.858 Y135.809 E1.1701
G1 X98.98 Y136.145 E1.17604
G1 X99.135 Y136.47 E1.18203
G1 X99.324 Y136.777 E1.18802
G1 X99.54 Y137.062 E1.19397
G1 X99.784 Y137.326 E1.19995
G1 X100.053 Y137.562 E1.2059
G1 X100.343 Y137.772 E1.21186
G1 X100.655 Y137.952 E1.21785
G1 X100.982 Y138.1 E1.22381
G1 X101.321 Y138.214 E1.22976
G1 X101.672 Y138.294 E1.23575
G1 X102.028 Y138.34 E1.24172
G1 X102.385 Y138.349 E1.24766
G1 X102.745 Y138.324 E1.25366
G0 F6000 X102.696 Y137.926
;TYPE:WALL-OUTER
G1 F1200 X103.01 Y137.871 E1.25896
G1 X103.316 Y137.785 E1.26425
G1 X103.614 Y137.668 E1.26957
G1 X103.898 Y137.523 E1.27487
G1 X104.166 Y137.35 E1.28018
G1 X104.415 Y137.152 E1.28547
G1 X104.644 Y136.928 E1.2908
G1 X104.848 Y136.684 E1.29608
G1 X105.029 Y136.42 E1.30141
G1 X105.182 Y136.14 E1.30671
G1 X105.305 Y135.847 E1.312
G1 X105.4 Y135.541 E1.31733
G1 X105.463 Y135.229 E1.32262
G1 X105.495 Y134.911 E1.32794
G1 X105.497 Y134.593 E1.33322
G1 X105.465 Y134.275 E1.33854
G1 X105.402 Y133.963 E1.34383
G1 X105.308 Y133.658 E1.34914
G1 X105.186 Y133.364 E1.35443
G1 X105.033 Y133.084 E1.35974
G1 X104.852 Y132.82 E1.36506
G1 X104.648 Y132.575 E1.37036
G1 X104.419 Y132.353 E1.37567
G1 X104.17 Y132.154 E1.38097
G1 X103.902 Y131.981 E1.38627
G1 X103.618 Y131.835 E1.39158
G1 X103.321 Y131.719 E1.39689
G1 X103.014 Y131.631 E1.4022
G1 X102.701 Y131.576 E1.40748
G1 X102.064 Y131.557 E1.41808
G1 X101.746 Y131.598 E1.42341
G1 X101.435 Y131.668 E1.42871
G1 X101.134 Y131.768 E1.43399
G1 X100.841 Y131.9 E1.43933
G1 X100.565 Y132.06 E1.44464
G1 X100.307 Y132.246 E1.44993
G1 X100.068 Y132.457 E1.45523
G1 X99.85 Y132.692 E1.46056
G1 X99.658 Y132.945 E1.46584
G1 X99.491 Y133.217 E1.47115
G1 X99.354 Y133.505 E1.47645
G1 X99.243 Y133.805 E1.48177
G1 X99.164 Y134.115 E1.48709
G1 X99.117 Y134.429 E1.49237
G1 X99.101 Y134.747 E1.49767
G1 X99.115 Y135.067 E1.503
G1 X99.162 Y135.381 E1.50828
G1 X99.241 Y135.691 E1.5136
G1 X99.349 Y135.99 E1.51888
G1 X99.487 Y136.279 E1.52421
G1 X99.654 Y136.551 E1.52952
G1 X99.847 Y136.805 E1.53482
G1 X100.063 Y137.039 E1.54012
G1 X100.303 Y137.249 E1.54542
G1 X100.561 Y137.436 E1.55072
G1 X100.838 Y137.596 E1.55604
G1 X101.129 Y137.727 E1.56135
G1 X101.43 Y137.829 E1.56663
G1 X101.742 Y137.9 E1.57195
G1 X102.059 Y137.941 E1.57727
G1 X102.376 Y137.949 E1.58254
G1 X102.696 Y137.926 E1.58788
G0 F6000 X102.749 Y138.362
G1 F2700 E-3.41212
G0 F6000 X104.306 Y137.545
G0 X105.039 Y136.829
G0 X105.53 Y135.929
G0 X105.734 Y134.924
G0 X105.634 Y133.905
G0 X105.238 Y132.959
G0 X104.704 Y132.323
G0 X102.184 Y130.169
G0 X102.222 Y132.416
G0 X102.373 Y106.585
G0 X102.406 Y108.84
G0 X102.842 Y108.62
;TYPE:WALL-INNER
G1 F2700 E1.58788
G1 F1200 X103.277 Y108.542 E1.59523
G1 X103.697 Y108.425 E1.60248
G1 X104.107 Y108.264 E1.6098
G1 X104.498 Y108.064 E1.61711
G1 X104.867 Y107.825 E1.62442
G1 X105.21 Y107.554 E1.63169
G1 X105.526 Y107.245 E1.63904
G1 X105.805 Y106.91 E1.64629
G1 X106.052 Y106.55 E1.65355
G1 X106.265 Y106.162 E1.66091
G1 X106.433 Y105.758 E1.66819
G1 X106.564 Y105.338 E1.6755
G1 X106.651 Y104.909 E1.68278
G1 X106.695 Y104.475 E1.69004
G1 X106.697 Y104.037 E1.69732
G1 X106.653 Y103.595 E1.70471
G1 X106.566 Y103.167 E1.71197
G1 X106.439 Y102.75 E1.71922
G1 X106.269 Y102.344 E1.72654
G1 X106.056 Y101.956 E1.7339
G1 X105.809 Y101.594 E1.74119
G1 X105.53 Y101.26 E1.74842
G1 X105.214 Y100.952 E1.75576
G1 X104.872 Y100.679 E1.76304
G1 X104.502 Y100.44 E1.77037
G1 X104.113 Y100.241 E1.77763
G1 X103.707 Y100.082 E1.78488
G1 X103.284 Y99.961 E1.7922
G1 X102.824 Y99.879 E1.79997
G1 X102.004 Y99.854 E1.81361
G1 X101.536 Y99.916 E1.82146
G1 X101.113 Y100.01 E1.82867
G1 X100.695 Y100.15 E1.836
G1 X100.293 Y100.332 E1.84334
G1 X99.911 Y100.552 E1.85067
G1 X99.557 Y100.808 E1.85794
G1 X99.228 Y101.096 E1.86521
G1 X98.93 Y101.42 E1.87253
G1 X98.668 Y101.767 E1.87976
G1 X98.435 Y102.143 E1.88711
G1 X98.247 Y102.539 E1.8944
G1 X98.097 Y102.947 E1.90163
G1 X97.986 Y103.376 E1.909
G1 X97.92 Y103.811 E1.91632
G1 X97.901 Y104.244 E1.92353
G1 X97.918 Y104.681 E1.9308
G1 X97.983 Y105.118 E1.93815
G1 X98.092 Y105.545 E1.94548
G1 X98.242 Y105.955 E1.95274
G1 X98.431 Y106.352 E1.96005
G1 X98.661 Y106.729 E1.96739
G1 X98.925 Y107.076 E1.97464
G1 X99.224 Y107.4 E1.98198
G1 X99.553 Y107.689 E1.98926
G1 X99.907 Y107.944 E1.99651
G1 X100.288 Y108.164 E2.00383
G1 X100.691 Y108.346 E2.01118
G1 X101.104 Y108.485 E2.01843
G1 X101.532 Y108.582 E2.02573
G1 X101.966 Y108.638 E2.03301
G1 X102.402 Y108.649 E2.04026
G1 X102.842 Y108.62 E2.04759
G0 F6000 X102.793 Y108.222
G1 F1200 X103.188 Y108.152 E2.05426
G1 X103.57 Y108.045 E2.06086
G1 X103.942 Y107.899 E2.06751
G1 X104.298 Y107.717 E2.07416
G1 X104.634 Y107.5 E2.08081
G1 X104.945 Y107.253 E2.08741
G1 X105.232 Y106.973 E2.09408
G1 X105.486 Y106.668 E2.10068
G1 X105.711 Y106.34 E2.1073
G1 X105.904 Y105.988 E2.11397
G1 X106.057 Y105.621 E2.12058
G1 X106.176 Y105.239 E2.12724
G1 X106.255 Y104.849 E2.13385
G1 X106.295 Y104.454 E2.14046
G1 X106.297 Y104.056 E2.14708
G1 X106.257 Y103.655 E2.15378
G1 X106.178 Y103.265 E2.1604
G1 X106.062 Y102.886 E2.16699
G1 X105.908 Y102.518 E2.17362
G1 X105.715 Y102.165 E2.18031
G1 X105.49 Y101.836 E2.18694
G1 X105.236 Y101.532 E2.19353
G1 X104.949 Y101.252 E2.2002
G1 X104.638 Y101.004 E2.20681
G1 X104.302 Y100.787 E2.21346
G1 X103.948 Y100.606 E2.22007
G1 X103.579 Y100.461 E2.22667
G1 X103.194 Y100.351 E2.23333
G1 X102.783 Y100.278 E2.24027
G1 X102.024 Y100.255 E2.2529
G1 X101.606 Y100.31 E2.25991
G1 X101.22 Y100.396 E2.26648
G1 X100.841 Y100.523 E2.27313
G1 X100.476 Y100.688 E2.27979
G1 X100.129 Y100.888 E2.28645
G1 X99.807 Y101.121 E2.29306
G1 X99.508 Y101.383 E2.29967
G1 X99.237 Y101.677 E2.30632
G1 X98.998 Y101.993 E2.31291
G1 X98.787 Y102.335 E2.3196
G1 X98.616 Y102.694 E2.32621
G1 X98.479 Y103.067 E2.33282
G1 X98.378 Y103.456 E2.3395
G1 X98.319 Y103.85 E2.34613
G1 X98.301 Y104.245 E2.3527
G1 X98.317 Y104.643 E2.35933
G1 X98.376 Y105.039 E2.36598
G1 X98.475 Y105.427 E2.37264
G1 X98.611 Y105.8 E2.37925
G1 X98.783 Y106.161 E2.3859
G1 X98.992 Y106.503 E2.39256
G1 X99.232 Y106.819 E2.39916
G1 X99.504 Y107.113 E2.40582
G1 X99.803 Y107.376 E2.41244
G1 X100.125 Y107.608 E2.41904
G1 X100.471 Y107.808 E2.42569
G1 X100.837 Y107.973 E2.43237
G1 X101.212 Y108.099 E2.43894
G1 X101.602 Y108.188 E2.4456
G1 X101.997 Y108.239 E2.45222
G1 X102.394 Y108.249 E2.45882
G1 X102.793 Y108.222 E2.46548
G0 F6000 X102.745 Y107.824
G1 F1200 X103.099 Y107.762 E2.47145
G1 X103.443 Y107.665 E2.4774
G1 X103.778 Y107.534 E2.48338
G1 X104.098 Y107.37 E2.48936
G1 X104.4 Y107.175 E2.49534
G1 X104.68 Y106.952 E2.50129
G1 X104.938 Y106.701 E2.50727
G1 X105.167 Y106.426 E2.51323
G1 X105.37 Y106.13 E2.51919
G1 X105.543 Y105.814 E2.52519
G1 X105.681 Y105.484 E2.53113
G1 X105.788 Y105.14 E2.53713
G1 X105.859 Y104.789 E2.54308
G1 X105.895 Y104.433 E2.54903
G1 X105.897 Y104.075 E2.55498
G1 X105.861 Y103.715 E2.561
G1 X105.79 Y103.364 E2.56696
G1 X105.685 Y103.022 E2.57291
G1 X105.547 Y102.691 E2.57887
G1 X105.374 Y102.374 E2.58488
G1 X105.171 Y102.078 E2.59084
G1 X104.942 Y101.804 E2.59678
G1 X104.684 Y101.552 E2.60278
G1 X104.404 Y101.329 E2.60873
G1 X104.102 Y101.134 E2.61471
G1 X103.783 Y100.971 E2.62067
G1 X103.45 Y100.84 E2.62662
G1 X103.104 Y100.741 E2.6326
G1 X102.742 Y100.677 E2.63872
G1 X102.044 Y100.656 E2.65033
G1 X101.676 Y100.704 E2.6565
G1 X101.327 Y100.782 E2.66245
G1 X100.987 Y100.896 E2.66841
G1 X100.659 Y101.044 E2.6744
G1 X100.347 Y101.224 E2.68039
G1 X100.057 Y101.434 E2.68634
G1 X99.788 Y101.67 E2.69229
G1 X99.544 Y101.934 E2.69827
G1 X99.328 Y102.219 E2.70422
G1 X99.139 Y102.526 E2.71021
G1 X98.985 Y102.849 E2.71617
G1 X98.861 Y103.186 E2.72214
G1 X98.771 Y103.536 E2.72815
G1 X98.718 Y103.889 E2.73408
G1 X98.701 Y104.246 E2.74003
G1 X98.716 Y104.605 E2.746
G1 X98.769 Y104.96 E2.75197
G1 X98.858 Y105.309 E2.75796
G1 X98.98 Y105.645 E2.76391
G1 X99.135 Y105.97 E2.76989
G1 X99.323 Y106.277 E2.77588
G1 X99.539 Y106.562 E2.78183
G1 X99.784 Y106.826 E2.78782
G1 X100.053 Y107.063 E2.79378
G1 X100.343 Y107.272 E2.79972
G1 X100.654 Y107.452 E2.8057
G1 X100.983 Y107.6 E2.8117
G1 X101.321 Y107.714 E2.81763
G1 X101.672 Y107.794 E2.82362
G1 X102.028 Y107.84 E2.82959
G1 X102.385 Y107.849 E2.83553
G1 X102.745 Y107.824 E2.84153
G0 F6000 X102.696 Y107.426
;TYPE:WALL-OUTER
G1 F1200 X103.01 Y107.371 E2.84683
G1 X103.316 Y107.285 E2.85211
G1 X103.614 Y107.169 E2.85743
G1 X103.898 Y107.023 E2.86274
G1 X104.166 Y106.85 E2.86805
G1 X104.415 Y106.651 E2.87335
G1 X104.644 Y106.429 E2.87865
G1 X104.848 Y106.184 E2.88395
G1 X105.029 Y105.92 E2.88928
G1 X105.182 Y105.64 E2.89458
G1 X105.305 Y105.347 E2.89987
G1 X105.4 Y105.041 E2.9052
G1 X105.463 Y104.729 E2.91049
G1 X105.495 Y104.412 E2.91579
G1 X105.497 Y104.094 E2.92108
G1 X105.465 Y103.775 E2.92641
G1 X105.402 Y103.463 E2.9317
G1 X105.308 Y103.158 E2.93701
G1 X105.186 Y102.864 E2.9423
G1 X105.033 Y102.584 E2.94761
G1 X104.852 Y102.32 E2.95293
G1 X104.648 Y102.076 E2.95822
G1 X104.419 Y101.852 E2.96355
G1 X104.17 Y101.654 E2.96884
G1 X103.902 Y101.481 E2.97414
G1 X103.618 Y101.336 E2.97945
G1 X103.321 Y101.219 E2.98476
G1 X103.014 Y101.131 E2.99007
G1 X102.701 Y101.076 E2.99535
G1 X102.064 Y101.057 E3.00595
G1 X101.746 Y101.098 E3.01128
G1 X101.435 Y101.168 E3.01658
G1 X101.133 Y101.269 E3.02188
G1 X100.842 Y101.4 E3.02719
G1 X100.565 Y101.56 E3.03251
G1 X100.307 Y101.747 E3.0378
G1 X100.067 Y101.957 E3.04311
G1 X99.851 Y102.191 E3.0484
G1 X99.658 Y102.445 E3.05371
G1 X99.491 Y102.717 E3.05902
G1 X99.354 Y103.005 E3.06432
G1 X99.243 Y103.305 E3.06964
G1 X99.164 Y103.615 E3.07496
G1 X99.117 Y103.929 E3.08024
G1 X99.101 Y104.247 E3.08554
G1 X99.115 Y104.567 E3.09086
G1 X99.162 Y104.881 E3.09614
G1 X99.241 Y105.191 E3.10146
G1 X99.349 Y105.49 E3.10675
G1 X99.487 Y105.779 E3.11207
G1 X99.654 Y106.051 E3.11738
G1 X99.846 Y106.304 E3.12266
G1 X100.064 Y106.539 E3.128
G1 X100.303 Y106.75 E3.1333
G1 X100.561 Y106.936 E3.13859
G1 X100.837 Y107.096 E3.14389
G1 X101.129 Y107.227 E3.14921
G1 X101.43 Y107.329 E3.1545
G1 X101.742 Y107.4 E3.15982
G1 X102.059 Y107.441 E3.16514
