;FLAVOR:Marlin
;TIME:7266
;Filament used: 4.55772m
;Layer height: 0.2
;MINX:73.5
;MINY:76
;MINZ:0.1
;MAXX:161.5
;MAXY:159
;MAXZ:13.1
;Generated with Cura_SteamEngine mb-master-20211110
M140 S50
M105
M190 S50
M104 S200
M105
M109 S200
M82 ;absolute extrusion mode
; Ender 3 Custom Start G-code
G92 E0 ; Reset Extruder
G28 ; Home all axes
G1 Z2.0 F3000 ; Move Z Axis up little to prevent scratching of Heat Bed
G1 X0.1 Y20 Z0.3 F5000.0 ; Move to start position
G1 X0.1 Y200.0 Z0.3 F1500.0 E15 ; Draw the first line
G1 X0.4 Y200.0 Z0.3 F5000.0 ; Move to side a little
G1 X0.4 Y20 Z0.3 F1500.0 E30 ; Draw the second line
G92 E0 ; Reset Extruder
G1 Z2.0 F3000 ; Move Z Axis up little to prevent scratching of Heat Bed
G1 X5 Y20 Z0.3 F5000.0 ; Move over to prevent blob squish
G92 E0
G92 E0
G1 F2700 E-5
;LAYER_COUNT:66
;LAYER:0
M107
G0 F6000 X76.698 Y79.264 Z0.1
;TYPE:SKIRT
G1 F2700 E0
G1 F1200 X77.386 Y78.627 E0.01559
G1 X78.126 Y78.051 E0.03119
G1 X78.912 Y77.539 E0.04679
G1 X79.739 Y77.097 E0.06238
G1 X80.601 Y76.727 E0.07798
G1 X81.491 Y76.431 E0.09358
G1 X82.403 Y76.213 E0.10917
G1 X83.33 Y76.072 E0.12477
G1 X84.201 Y76.013 E0.13928
G1 X84.522 Y76.004 E0.14462
G1 X84.83 Y76 E0.14975
G1 X149.793 Y76 E1.23009
G1 X150.649 Y76.011 E1.24432
G1 X151.585 Y76.065 E1.25991
G1 X152.513 Y76.197 E1.2755
G1 X153.427 Y76.409 E1.29111
G1 X154.319 Y76.698 E1.3067
G1 X155.184 Y77.061 E1.3223
G1 X156.014 Y77.497 E1.33789
G1 X156.805 Y78.002 E1.3535
G1 X157.549 Y78.573 E1.36909
G1 X158.242 Y79.205 E1.38469
G1 X158.879 Y79.893 E1.40028
G1 X159.454 Y80.634 E1.41588
G1 X159.965 Y81.42 E1.43147
G1 X160.407 Y82.248 E1.44708
G1 X160.776 Y83.11 E1.46267
G1 X161.071 Y84 E1.47827
G1 X161.289 Y84.912 E1.49386
G1 X161.429 Y85.84 E1.50947
G1 X161.487 Y86.701 E1.52382
G1 X161.496 Y87.021 E1.52914
G1 X161.5 Y87.33 E1.53428
G1 X161.5 Y147.264 E2.53099
G1 X161.49 Y148.127 E2.54534
G1 X161.439 Y149.064 E2.56095
G1 X161.307 Y149.992 E2.57654
G1 X161.098 Y150.906 E2.59213
G1 X160.811 Y151.799 E2.60773
G1 X160.449 Y152.665 E2.62334
G1 X160.015 Y153.496 E2.63893
G1 X159.511 Y154.287 E2.65452
G1 X158.942 Y155.032 E2.67011
G1 X158.311 Y155.727 E2.68572
G1 X157.624 Y156.365 E2.70132
G1 X156.885 Y156.942 E2.71691
G1 X156.099 Y157.454 E2.73251
G1 X155.273 Y157.897 E2.7481
G1 X154.411 Y158.269 E2.76371
G1 X153.522 Y158.565 E2.77929
G1 X152.61 Y158.785 E2.79489
G1 X151.683 Y158.926 E2.81049
G1 X150.799 Y158.987 E2.82522
G1 X150.478 Y158.996 E2.83056
G1 X150.17 Y159 E2.83568
G1 X85.207 Y159 E3.91602
G1 X84.367 Y158.99 E3.92999
G1 X83.431 Y158.938 E3.94558
G1 X82.502 Y158.806 E3.96119
G1 X81.588 Y158.596 E3.97678
G1 X80.695 Y158.309 E3.99238
G1 X79.83 Y157.946 E4.00798
G1 X78.999 Y157.512 E4.02357
G1 X78.208 Y157.008 E4.03917
G1 X77.463 Y156.438 E4.05477
G1 X76.769 Y155.807 E4.07037
G1 X76.132 Y155.12 E4.08595
G1 X75.555 Y154.38 E4.10155
G1 X75.043 Y153.594 E4.11715
G1 X74.6 Y152.767 E4.13276
G1 X74.229 Y151.906 E4.14835
G1 X73.933 Y151.016 E4.16395
G1 X73.714 Y150.104 E4.17954
G1 X73.573 Y149.177 E4.19514
G1 X73.513 Y148.288 E4.20995
G1 X73.504 Y147.955 E4.21549
G1 X73.5 Y147.658 E4.22043
G1 X73.5 Y87.674 E5.21797
G1 X73.51 Y86.86 E5.23151
G1 X73.563 Y85.924 E5.2471
G1 X73.695 Y84.995 E5.26271
G1 X73.906 Y84.081 E5.2783
G1 X74.194 Y83.189 E5.29389
G1 X74.557 Y82.324 E5.30949
G1 X74.992 Y81.493 E5.32509
G1 X75.496 Y80.703 E5.34068
G1 X76.066 Y79.958 E5.35628
G1 X76.698 Y79.264 E5.37188
G0 F6000 X77.089 Y79.439
G1 F1200 X77.774 Y78.823 E5.38721
G1 X78.51 Y78.27 E5.40251
G1 X79.291 Y77.782 E5.41783
G1 X80.111 Y77.364 E5.43314
G1 X80.965 Y77.019 E5.44845
G1 X81.845 Y76.749 E5.46376
G1 X82.745 Y76.557 E5.47906
G1 X83.659 Y76.443 E5.49438
G1 X84.212 Y76.413 E5.50359
G1 X84.533 Y76.404 E5.50893
G1 X84.83 Y76.4 E5.51387
G1 X149.793 Y76.4 E6.59421
G1 X150.643 Y76.411 E6.60835
G1 X151.562 Y76.464 E6.62366
G1 X152.473 Y76.597 E6.63897
G1 X153.369 Y76.808 E6.65428
G1 X154.243 Y77.096 E6.66958
G1 X155.09 Y77.459 E6.6849
G1 X155.901 Y77.894 E6.70021
G1 X156.671 Y78.398 E6.71551
G1 X157.395 Y78.967 E6.73083
G1 X158.067 Y79.597 E6.74614
G1 X158.682 Y80.282 E6.76145
G1 X159.235 Y81.018 E6.77676
G1 X159.722 Y81.799 E6.79207
G1 X160.139 Y82.62 E6.80738
G1 X160.484 Y83.474 E6.8227
G1 X160.753 Y84.354 E6.838
G1 X160.945 Y85.255 E6.85332
G1 X161.058 Y86.168 E6.86862
G1 X161.087 Y86.712 E6.87768
G1 X161.096 Y87.032 E6.88301
G1 X161.1 Y87.33 E6.88796
G1 X161.1 Y147.264 E7.88467
G1 X161.09 Y148.122 E7.89894
G1 X161.039 Y149.041 E7.91424
G1 X160.908 Y149.953 E7.92957
G1 X160.698 Y150.849 E7.94487
G1 X160.412 Y151.724 E7.96018
G1 X160.051 Y152.571 E7.97549
G1 X159.617 Y153.383 E7.9908
G1 X159.115 Y154.155 E8.00612
G1 X158.547 Y154.88 E8.02143
G1 X157.919 Y155.553 E8.03674
G1 X157.235 Y156.169 E8.05205
G1 X156.5 Y156.723 E8.06736
G1 X155.72 Y157.212 E8.08267
G1 X154.9 Y157.631 E8.09798
G1 X154.047 Y157.977 E8.11329
G1 X153.167 Y158.248 E8.1286
G1 X152.267 Y158.441 E8.14391
G1 X151.353 Y158.556 E8.15923
G1 X150.788 Y158.587 E8.16864
G1 X150.467 Y158.596 E8.17398
G1 X150.17 Y158.6 E8.17892
G1 X85.207 Y158.6 E9.25926
G1 X84.372 Y158.59 E9.27314
G1 X83.453 Y158.538 E9.28845
G1 X82.542 Y158.407 E9.30376
G1 X81.646 Y158.197 E9.31906
G1 X80.771 Y157.91 E9.33437
G1 X79.924 Y157.548 E9.34969
G1 X79.112 Y157.114 E9.365
G1 X78.341 Y156.612 E9.3803
G1 X77.616 Y156.044 E9.39562
G1 X76.943 Y155.415 E9.41094
G1 X76.328 Y154.731 E9.42624
G1 X75.774 Y153.996 E9.44154
G1 X75.286 Y153.215 E9.45686
G1 X74.867 Y152.395 E9.47217
G1 X74.521 Y151.542 E9.48748
G1 X74.251 Y150.662 E9.50279
G1 X74.058 Y149.761 E9.51811
G1 X73.944 Y148.848 E9.53341
G1 X73.913 Y148.277 E9.54292
G1 X73.904 Y147.944 E9.54846
G1 X73.9 Y147.658 E9.55322
G1 X73.9 Y87.674 E10.55076
G1 X73.91 Y86.866 E10.5642
G1 X73.962 Y85.946 E10.57952
G1 X74.094 Y85.035 E10.59483
G1 X74.305 Y84.139 E10.61014
G1 X74.592 Y83.264 E10.62545
G1 X74.955 Y82.418 E10.64076
G1 X75.389 Y81.606 E10.65607
G1 X75.892 Y80.835 E10.67138
G1 X76.461 Y80.111 E10.68669
G1 X77.089 Y79.439 E10.70199
G0 F6000 X77.481 Y79.617
G1 F1200 X78.162 Y79.024 E10.71701
G1 X78.894 Y78.494 E10.73203
G1 X79.669 Y78.031 E10.74705
G1 X80.482 Y77.638 E10.76206
G1 X81.327 Y77.318 E10.77709
G1 X82.196 Y77.075 E10.7921
G1 X83.084 Y76.909 E10.80712
G1 X84.223 Y76.813 E10.82613
G1 X84.544 Y76.804 E10.83147
G1 X84.83 Y76.8 E10.83623
G1 X149.793 Y76.8 E11.91657
G1 X150.637 Y76.811 E11.9306
G1 X151.539 Y76.864 E11.94563
G1 X152.432 Y76.996 E11.96064
G1 X153.31 Y77.207 E11.97566
G1 X154.166 Y77.495 E11.99068
G1 X154.993 Y77.857 E12.00569
G1 X155.785 Y78.292 E12.02072
G1 X156.536 Y78.794 E12.03574
G1 X157.239 Y79.361 E12.05076
G1 X157.889 Y79.988 E12.06578
G1 X158.481 Y80.67 E12.0808
G1 X159.011 Y81.401 E12.09581
G1 X159.473 Y82.177 E12.11083
G1 X159.866 Y82.99 E12.12585
G1 X160.184 Y83.835 E12.14086
G1 X160.427 Y84.705 E12.15588
G1 X160.592 Y85.593 E12.1709
G1 X160.687 Y86.723 E12.18976
G1 X160.696 Y87.043 E12.19509
G1 X160.7 Y87.33 E12.19986
G1 X160.7 Y147.264 E13.19657
G1 X160.69 Y148.117 E13.21075
G1 X160.639 Y149.019 E13.22578
G1 X160.508 Y149.913 E13.2408
G1 X160.299 Y150.791 E13.25581
G1 X160.013 Y151.648 E13.27084
G1 X159.652 Y152.476 E13.28586
G1 X159.22 Y153.268 E13.30086
G1 X158.719 Y154.02 E13.31589
G1 X158.153 Y154.724 E13.33091
G1 X157.528 Y155.375 E13.34592
G1 X156.847 Y155.969 E13.36095
G1 X156.116 Y156.5 E13.37597
G1 X155.342 Y156.964 E13.39098
G1 X154.529 Y157.358 E13.406
G1 X153.685 Y157.678 E13.42101
G1 X152.815 Y157.923 E13.43605
G1 X151.928 Y158.089 E13.45105
G1 X150.777 Y158.187 E13.47026
G1 X150.456 Y158.196 E13.4756
G1 X150.17 Y158.2 E13.48036
G1 X85.207 Y158.2 E14.5607
G1 X84.377 Y158.19 E14.5745
G1 X83.476 Y158.139 E14.58951
G1 X82.582 Y158.007 E14.60454
G1 X81.704 Y157.798 E14.61955
G1 X80.847 Y157.511 E14.63458
G1 X80.02 Y157.15 E14.64958
G1 X79.227 Y156.717 E14.66461
G1 X78.476 Y156.216 E14.67962
G1 X77.772 Y155.65 E14.69464
G1 X77.121 Y155.024 E14.70966
G1 X76.528 Y154.343 E14.72468
G1 X75.998 Y153.612 E14.7397
G1 X75.534 Y152.837 E14.75472
G1 X75.14 Y152.024 E14.76974
G1 X74.82 Y151.18 E14.78475
G1 X74.576 Y150.31 E14.79978
G1 X74.41 Y149.422 E14.8148
G1 X74.313 Y148.267 E14.83408
G1 X74.304 Y147.934 E14.83962
G1 X74.3 Y147.658 E14.84421
G1 X74.3 Y87.674 E15.84175
G1 X74.31 Y86.871 E15.8551
G1 X74.362 Y85.969 E15.87013
G1 X74.494 Y85.076 E15.88514
G1 X74.704 Y84.198 E15.90015
G1 X74.991 Y83.341 E15.91518
G1 X75.353 Y82.514 E15.93019
G1 X75.786 Y81.722 E15.94521
G1 X76.288 Y80.971 E15.96023
G1 X76.855 Y80.267 E15.97526
G1 X77.481 Y79.617 E15.99027
G1 F2700 E10.99027
;MESH:Option_4-elektronika.amf
G0 F6000 X101.769 Y130.104
G0 X99.374 Y127.071
G0 X100.513 Y131.504
G0 X102.361 Y135.264
;TYPE:WALL-INNER
G1 F2700 E15.99027
G1 F1200 X103.075 Y135.19 E16.00221
G1 X103.729 Y135.029 E16.01341
G1 X104.355 Y134.764 E16.02471
G1 X104.958 Y134.393 E16.03649
G1 X105.61 Y133.819 E16.05093
G1 X105.686 Y133.718 E16.05303
G1 X105.702 Y136.5 E16.0993
G1 X128.3 Y136.5 E16.47511
G1 X128.3 Y117.247 E16.79528
G1 X128.3 Y116.434 E16.8088
G1 X128.542 Y117.247 E16.81332
G1 X128.868 Y117.878 E16.82513
G1 X129.365 Y118.537 E16.83886
G1 X129.889 Y119.026 E16.85078
G1 X130.448 Y119.405 E16.86201
G1 X131.048 Y119.692 E16.87307
G1 X131.69 Y119.893 E16.88425
G1 X132.355 Y119.995 E16.89544
G1 X133.038 Y119.996 E16.9068
G1 X133.707 Y119.895 E16.91805
G1 X134.343 Y119.694 E16.92915
G1 X134.947 Y119.408 E16.94026
G1 X135.507 Y119.029 E16.9515
G1 X136.032 Y118.541 E16.96342
G1 X136.55 Y117.852 E16.97776
G1 X136.935 Y117.054 E16.99249
G1 X137.173 Y116.154 E17.00798
G1 X137.199 Y115.134 E17.02494
G1 X137.065 Y114.36 E17.03801
G1 X136.767 Y113.545 E17.05244
G1 X136.305 Y112.782 E17.06727
G1 X135.718 Y112.142 E17.08171
G1 X135.147 Y111.714 E17.09358
G1 X134.528 Y111.375 E17.10532
G1 X133.748 Y111.114 E17.119
G1 X133.054 Y111.005 E17.13068
G1 X132.372 Y111.003 E17.14202
G1 X131.698 Y111.105 E17.15336
G1 X131.065 Y111.299 E17.16437
G1 X130.453 Y111.589 E17.17563
G1 X129.892 Y111.975 E17.18695
G1 X129.368 Y112.46 E17.19883
G1 X128.871 Y113.12 E17.21257
G1 X128.552 Y113.743 E17.22421
G1 X128.323 Y114.411 E17.23595
G1 X128.322 Y113.744 E17.23898
G1 X128.3 Y106 E17.36776
G1 X126.41 Y106 E17.3992
G1 X126.592 Y105.662 E17.40558
G1 X126.826 Y104.518 E17.425
G1 X126.716 Y103.323 E17.44496
G1 X126.245 Y102.204 E17.46515
G1 X125.495 Y101.309 E17.48456
G1 X124.608 Y100.699 E17.50247
G1 X123.549 Y100.347 E17.52103
G1 X122.479 Y100.281 E17.53885
G1 X121.328 Y100.542 E17.55848
G1 X120.328 Y101.125 E17.57773
G1 X119.581 Y101.881 E17.59541
G1 X119.014 Y102.904 E17.61486
G1 X118.774 Y104.082 E17.63485
G1 X118.884 Y105.277 E17.65481
G1 X119.188 Y106 E17.66785
G1 X110.835 Y106 E17.80676
G1 X111.133 Y105.118 E17.82224
G1 X111.221 Y104.118 E17.83894
G1 X111.036 Y103.088 E17.85634
G1 X110.553 Y102.07 E17.87508
G1 X109.864 Y101.287 E17.89242
G1 X109.008 Y100.699 E17.90969
G1 X107.949 Y100.347 E17.92825
G1 X106.88 Y100.281 E17.94606
G1 X106.79 Y100.301 E17.9476
G1 X106.805 Y100.051 E17.9504
G1 X106.725 Y99.369 E17.96182
G1 X106.534 Y98.701 E17.97337
G1 X106.258 Y98.098 E17.9844
G1 X105.883 Y97.509 E17.99602
G1 X105.31 Y96.89 E18.01004
G1 X104.744 Y96.464 E18.02182
G1 X104.127 Y96.125 E18.03353
G1 X103.346 Y95.864 E18.04722
G1 X102.651 Y95.755 E18.05892
G1 X101.971 Y95.753 E18.07023
G1 X101.293 Y95.855 E18.08163
G1 X100.65 Y96.056 E18.09284
G1 X100.051 Y96.342 E18.10388
G1 X99.493 Y96.721 E18.11509
G1 X98.977 Y97.201 E18.12681
G1 X98.471 Y97.862 E18.14066
G1 X98.152 Y98.493 E18.15242
G1 X97.93 Y99.131 E18.16365
G1 X97.816 Y99.794 E18.17484
G1 X97.794 Y100.497 E18.18653
G1 X97.921 Y101.326 E18.20048
G1 X98.144 Y101.993 E18.21218
G1 X98.461 Y102.627 E18.22397
G1 X98.992 Y103.322 E18.23851
G1 X99.638 Y103.888 E18.25279
G1 X100.237 Y104.254 E18.26447
G1 X100.855 Y104.521 E18.27566
G1 X101.542 Y104.695 E18.28745
G1 X102.361 Y104.764 E18.30112
G1 X103.075 Y104.69 E18.31305
G1 X103.228 Y104.652 E18.31568
G1 X103.284 Y105.242 E18.32553
G1 X103.674 Y106.252 E18.34354
G1 X104.356 Y107.15 E18.36229
G1 X105.174 Y107.772 E18.37938
G1 X105.7 Y108 E18.38891
G1 X105.7 Y109.572 E18.41505
G1 X105.7 Y110.119 E18.42415
G1 X105.172 Y109.491 E18.43271
G1 X104.192 Y108.856 E18.45213
G1 X103.215 Y108.551 E18.46915
G1 X102.173 Y108.492 E18.48651
G1 X101.073 Y108.746 E18.50528
G1 X100.129 Y109.253 E18.5231
G1 X99.291 Y110.069 E18.54255
G1 X98.714 Y111.123 E18.56253
G1 X98.474 Y112.293 E18.5824
G1 X98.584 Y113.489 E18.60237
G1 X99.053 Y114.604 E18.62249
G1 X99.8 Y115.503 E18.64192
G1 X100.665 Y116.092 E18.65933
G1 X101.592 Y116.431 E18.67574
G1 X102.614 Y116.539 E18.69283
G1 X103.737 Y116.345 E18.71178
G1 X104.681 Y115.893 E18.72919
G1 X105.472 Y115.225 E18.74641
G1 X105.7 Y114.893 E18.75311
G1 X105.7 Y127.303 E18.95948
G1 X105.7 Y127.811 E18.96793
G1 X105.31 Y127.39 E18.97267
G1 X104.744 Y126.964 E18.98445
G1 X104.127 Y126.625 E18.99616
G1 X103.346 Y126.364 E19.00986
G1 X102.651 Y126.255 E19.02156
G1 X101.971 Y126.253 E19.03286
G1 X101.293 Y126.355 E19.04427
G1 X100.65 Y126.556 E19.05547
G1 X100.051 Y126.842 E19.06651
G1 X99.493 Y127.221 E19.07773
G1 X98.977 Y127.701 E19.08945
G1 X98.471 Y128.362 E19.10329
G1 X98.152 Y128.993 E19.11505
G1 X97.93 Y129.631 E19.12628
G1 X97.816 Y130.294 E19.13747
G1 X97.794 Y130.997 E19.14917
G1 X97.921 Y131.826 E19.16311
G1 X98.144 Y132.493 E19.17481
G1 X98.461 Y133.127 E19.1866
G1 X98.992 Y133.822 E19.20114
G1 X99.638 Y134.388 E19.21542
G1 X100.237 Y134.754 E19.2271
G1 X100.855 Y135.021 E19.23829
G1 X101.542 Y135.195 E19.25008
G1 X102.361 Y135.264 E19.26375
G0 F6000 X102.357 Y134.862
G1 F1200 X103.006 Y134.795 E19.2746
G1 X103.602 Y134.648 E19.28481
G1 X104.171 Y134.407 E19.29508
G1 X104.719 Y134.07 E19.30578
G1 X105.315 Y133.546 E19.31898
G1 X105.782 Y132.925 E19.3319
G1 X106.078 Y132.362 E19.34248
G1 X106.081 Y132.923 E19.34556
G1 X106.1 Y136.1 E19.3984
G1 X127.9 Y136.1 E19.76093
G1 X127.9 Y106.4 E20.25485
G1 X125.741 Y106.4 E20.29075
G1 X126.212 Y105.524 E20.30729
G1 X126.422 Y104.496 E20.32474
G1 X126.323 Y103.421 E20.34269
G1 X125.9 Y102.415 E20.36084
G1 X125.223 Y101.608 E20.37836
G1 X124.428 Y101.061 E20.39441
G1 X123.472 Y100.743 E20.41116
G1 X122.512 Y100.684 E20.42716
G1 X121.476 Y100.919 E20.44482
G1 X120.575 Y101.444 E20.46217
G1 X119.904 Y102.123 E20.47804
G1 X119.394 Y103.044 E20.49555
G1 X119.178 Y104.104 E20.51354
G1 X119.277 Y105.179 E20.53149
G1 X119.7 Y106.185 E20.54964
G1 X119.88 Y106.4 E20.5543
G1 X110.108 Y106.4 E20.71681
G1 X110.445 Y105.906 E20.72676
G1 X110.739 Y105.035 E20.74205
G1 X110.818 Y104.136 E20.75705
G1 X110.652 Y103.211 E20.77268
G1 X110.216 Y102.292 E20.7896
G1 X109.597 Y101.589 E20.80518
G1 X108.828 Y101.061 E20.82069
G1 X107.872 Y100.743 E20.83744
G1 X106.912 Y100.684 E20.85344
G1 X106.359 Y100.809 E20.86287
G1 X106.404 Y100.062 E20.87531
G1 X106.332 Y99.448 E20.88559
G1 X106.158 Y98.84 E20.89611
G1 X105.906 Y98.29 E20.90617
G1 X105.565 Y97.754 E20.91673
G1 X105.041 Y97.188 E20.92956
G1 X104.526 Y96.801 E20.94028
G1 X103.966 Y96.493 E20.9509
G1 X103.251 Y96.254 E20.96344
G1 X102.619 Y96.155 E20.97408
G1 X102 Y96.153 E20.98437
G1 X101.383 Y96.246 E20.99475
G1 X100.797 Y96.429 E21.00496
G1 X100.251 Y96.69 E21.01502
G1 X99.743 Y97.035 E21.02524
G1 X99.274 Y97.471 E21.03588
G1 X98.811 Y98.076 E21.04855
G1 X98.521 Y98.65 E21.05925
G1 X98.319 Y99.231 E21.06948
G1 X98.215 Y99.834 E21.07965
G1 X98.195 Y100.473 E21.09029
G1 X98.311 Y101.232 E21.10305
G1 X98.514 Y101.839 E21.1137
G1 X98.802 Y102.414 E21.12439
G1 X99.286 Y103.048 E21.13766
G1 X99.876 Y103.565 E21.1507
G1 X100.421 Y103.898 E21.16133
G1 X100.984 Y104.141 E21.17152
G1 X101.608 Y104.299 E21.18223
G1 X102.357 Y104.362 E21.19473
G1 X103.006 Y104.295 E21.20558
G1 X103.583 Y104.153 E21.21546
G1 X103.677 Y105.149 E21.2321
G1 X104.027 Y106.055 E21.24825
G1 X104.642 Y106.865 E21.26516
G1 X105.377 Y107.424 E21.28052
G1 X106.1 Y107.737 E21.29362
G1 X106.1 Y110.841 E21.34524
G1 X106.1 Y111.45 E21.35537
G1 X106.1 Y112.246 E21.36861
G1 X105.964 Y111.45 E21.37101
G1 X105.577 Y110.595 E21.3833
G1 X104.904 Y109.794 E21.4007
G1 X104.021 Y109.222 E21.4182
G1 X103.143 Y108.948 E21.43349
G1 X102.207 Y108.895 E21.44909
G1 X101.215 Y109.124 E21.46602
